build/img/svg/icon-touch.svg

<svg width="34" height="28" viewBox="0 0 34 28" fill="none" xmlns="http://www.w3.org/2000/svg">
<path d="M0.995605 2.90929V5.00023L9.83332 13.8026L10.4426 14.9322H6.24395L4.66945 15.4549L5.19428 17.5458L18.84 24.8641H21.4642L24.0883 24.3414L26.7125 26.955L33.0105 20.1595L30.3864 17.5458V13.8867L28.287 10.2276L25.138 7.09116L18.84 0.818359L16.7407 1.34109L15.691 2.90929H14.1165L12.542 5.00023L9.9178 5.52296L8.86813 7.09116L2.57011 1.86383L0.995605 2.90929Z" fill="white"/>
<path d="M8.91712 13.9364L8.59617 13.6228C6.01543 11.1009 3.42664 8.58571 0.853143 6.05646C0.512659 5.72943 0.261215 5.32132 0.122545 4.87057C-0.0161402 4.41981 -0.0375073 3.94126 0.0604587 3.47999C0.158439 3.01872 0.372503 2.58993 0.682518 2.234C0.992519 1.87809 1.38827 1.60676 1.83245 1.44558C2.92771 1.04927 3.93429 1.27072 4.77548 2.07505C6.02539 3.27397 7.25361 4.49661 8.49308 5.70781L8.85179 6.05832L9.08995 5.6749C9.52314 4.97498 10.1166 4.53763 10.965 4.47297C11.6283 4.42155 12.1049 4.06565 12.4436 3.49963C12.9834 2.59434 13.8113 2.19025 14.8454 2.17067C15.0127 2.16408 15.1901 2.18657 15.3836 2.20241C15.5923 1.4821 15.9598 0.873632 16.6121 0.459995C17.6929 -0.232818 19.1108 -0.146928 20.0325 0.744115C22.0334 2.6721 24.0135 4.61975 25.9936 6.56909C26.3941 6.96047 26.3976 7.46789 26.0415 7.83052C25.6853 8.1933 25.1871 8.1798 24.7808 7.78446C22.9033 5.95621 21.0291 4.12473 19.158 2.28996C19.0562 2.1905 18.9528 2.08945 18.8462 1.99489C18.6376 1.81515 18.3679 1.72181 18.0924 1.73399C17.817 1.74618 17.5567 1.86295 17.3648 2.06041C17.1754 2.25968 17.0696 2.52372 17.0691 2.79834C17.0687 3.07296 17.1735 3.33735 17.3622 3.53729C17.5447 3.73805 17.7473 3.92158 17.9419 4.11169C19.0476 5.19213 20.154 6.27336 21.2597 7.35376C21.7086 7.79253 21.7636 8.30508 21.4123 8.68077C21.0611 9.05645 20.5116 9.02638 20.0494 8.57647C18.572 7.13269 17.0994 5.69368 15.6243 4.25229C15.1408 3.77985 14.4819 3.77772 14.0475 4.20693C13.6131 4.63615 13.6419 5.29647 14.1125 5.77878C14.1847 5.84935 14.2562 5.91914 14.3284 5.98973L18.1691 9.74284C18.2648 9.82895 18.3545 9.92152 18.4377 10.0197C18.5674 10.185 18.6326 10.3917 18.6208 10.6015C18.609 10.8111 18.5213 11.0093 18.3739 11.1592C18.2235 11.3056 18.025 11.3927 17.815 11.4045C17.6051 11.4162 17.3981 11.3517 17.2322 11.2229C17.1222 11.131 17.0178 11.0329 16.9196 10.9286C15.373 9.41733 13.8257 7.90548 12.2793 6.39422C11.8032 5.92902 11.1248 5.94007 10.7046 6.38616C10.2841 6.83226 10.3249 7.45923 10.7766 7.92793C10.8587 8.00817 10.9407 8.08841 11.0228 8.16851L15.1057 12.1582C15.6623 12.7021 15.752 13.2037 15.3652 13.6056C14.9786 14.0077 14.4603 13.936 13.9094 13.3978L3.82868 3.54708C3.72008 3.43317 3.60531 3.32531 3.48487 3.22396C3.27581 3.05626 3.01176 2.97198 2.74394 2.98747C2.47611 3.00296 2.22359 3.11712 2.03537 3.3078C1.84989 3.50099 1.74319 3.75617 1.73604 4.02358C1.7289 4.29099 1.82182 4.55146 1.99672 4.75426C2.1015 4.87161 2.21221 4.98357 2.32846 5.08965L14.5591 17.0411C14.6411 17.1213 14.7232 17.2014 14.8052 17.2817C15.1716 17.6588 15.2218 18.1155 14.9397 18.4816C14.6838 18.8124 14.2013 18.8977 13.7699 18.6638C12.8146 18.1444 11.8649 17.616 10.9145 17.0883C10.1136 16.6443 9.31672 16.1945 8.51583 15.7505C7.41584 15.1409 6.4043 15.2259 5.71739 15.9796C5.44825 16.2765 5.46046 16.5131 5.77553 16.7295C9.41476 19.2251 13.18 21.5053 17.1962 23.3566C18.2664 23.8489 19.3637 24.2745 20.5642 24.31C21.0354 24.3253 21.5071 24.3032 21.9749 24.2443C22.6237 24.1629 23.2219 23.8529 23.6616 23.3703C25.529 21.4226 27.4325 19.5135 29.3121 17.5764C29.4729 17.4015 29.5829 17.1863 29.6307 16.9538C29.8422 15.8768 29.7094 14.8245 29.3477 13.789C29.259 13.4975 29.2663 13.1852 29.3685 12.898C29.4815 12.5912 29.8051 12.4533 30.1525 12.4863C30.5347 12.5229 30.7701 12.7434 30.9102 13.0937C31.4165 14.3186 31.5751 15.6588 31.3689 16.9676C31.3299 17.1297 31.3383 17.2996 31.3933 17.457C31.4482 17.6145 31.5473 17.753 31.6787 17.856C32.3358 18.453 32.9671 19.078 33.6023 19.6988C34.1294 20.2138 34.1314 20.6507 33.6153 21.1763C31.5145 23.3157 29.4132 25.4557 27.3114 27.5961C26.792 28.1251 26.3574 28.1352 25.8305 27.6219C25.1959 27.002 24.5751 26.3664 23.9309 25.7561C23.825 25.6527 23.5943 25.57 23.4703 25.6141C21.5177 26.312 19.5927 26.1397 17.7091 25.4206C15.2283 24.4711 12.9027 23.1998 10.6313 21.8404C8.70591 20.689 6.81151 19.4764 4.94439 18.2296C3.38983 17.1919 3.43189 15.4471 4.97725 14.3401C6.05321 13.5719 7.21877 13.4513 8.45551 13.8496C8.59981 13.8959 8.7417 13.9446 8.88439 13.9926L8.91712 13.9364ZM30.3832 19.0001L25.0627 24.4184L26.5493 25.871L31.8737 20.4485L30.3832 19.0001Z" fill="#565555"/>
<path d="M28.6765 9.49691C28.7533 9.57774 28.8131 9.67295 28.8524 9.7771C28.8918 9.88125 28.9097 9.9923 28.9055 10.1035C28.9012 10.2147 28.8746 10.324 28.8274 10.4248C28.7802 10.5255 28.7131 10.6161 28.6303 10.6906C28.4665 10.8442 28.2484 10.9269 28.0236 10.9207C27.7989 10.9146 27.5857 10.82 27.4307 10.6576C27.2773 10.4936 27.1935 10.2766 27.1969 10.0523C27.2004 9.828 27.2907 9.61383 27.4491 9.45452C27.5313 9.37457 27.6288 9.31222 27.7358 9.27085C27.8429 9.22963 27.9571 9.21041 28.0718 9.21438C28.1865 9.21834 28.2992 9.24547 28.4031 9.29403C28.507 9.34259 28.6 9.41153 28.6765 9.49691Z" fill="#565555"/>
</svg>

<svg width="34" height="28" fill="none" xmlns="http://www.w3.org/2000/svg"><path d="M.996 2.91V5l8.837 8.803.61 1.13H6.244l-1.575.522.525 2.09 13.646 7.32h2.624l2.624-.524 2.624 2.614 6.299-6.795-2.625-2.614v-3.66l-2.099-3.658-3.149-3.137L18.84.818l-2.1.523-1.049 1.568h-1.575L12.543 5l-2.624.523-1.05 1.568L2.57 1.864.996 2.909z" fill="#fff"/><path d="M8.917 13.936l-.32-.313C6.014 11.1 3.426 8.586.852 6.056a2.776 2.776 0 01-.17-3.822c.31-.356.705-.627 1.15-.788 1.095-.397 2.101-.175 2.942.63 1.25 1.198 2.479 2.42 3.718 3.632l.359.35.238-.383c.433-.7 1.027-1.137 1.875-1.202.663-.051 1.14-.407 1.479-.973.54-.906 1.367-1.31 2.401-1.33.168-.006.345.017.539.032.208-.72.576-1.328 1.228-1.742 1.08-.693 2.499-.607 3.42.284a779.852 779.852 0 015.962 5.825c.4.391.404.899.047 1.262-.356.362-.854.349-1.26-.047-1.878-1.828-3.752-3.66-5.623-5.494-.102-.1-.205-.2-.312-.295a1.082 1.082 0 00-1.481.065 1.074 1.074 0 00-.003 1.477c.183.201.385.385.58.575l3.318 3.242c.449.439.504.951.152 1.327-.35.375-.9.345-1.363-.105l-4.425-4.324c-.483-.472-1.142-.474-1.577-.045-.434.43-.405 1.09.066 1.572l.215.21 3.841 3.754c.096.086.186.179.269.277a.864.864 0 01-.064 1.14.871.871 0 01-1.142.063 3.593 3.593 0 01-.312-.294l-4.64-4.535c-.477-.465-1.155-.454-1.575-.008-.42.446-.38 1.073.072 1.542l.246.24 4.083 3.99c.556.544.646 1.046.26 1.448-.387.402-.906.33-1.457-.208L3.83 3.548a4.302 4.302 0 00-.344-.324 1.084 1.084 0 00-1.45.084 1.075 1.075 0 00-.038 1.446c.105.118.215.23.331.336L14.56 17.04l.246.24c.367.378.417.835.135 1.2-.256.331-.739.417-1.17.183-.955-.52-1.905-1.048-2.855-1.576-.801-.444-1.598-.893-2.4-1.338-1.1-.61-2.11-.524-2.798.23-.269.296-.257.533.059.75 3.639 2.495 7.404 4.775 11.42 6.627 1.07.492 2.168.918 3.368.953.471.015.943-.007 1.41-.066a2.744 2.744 0 001.688-.874c1.867-1.947 3.77-3.857 5.65-5.794.16-.175.27-.39.319-.622.211-1.077.078-2.13-.283-3.165a1.422 1.422 0 01.02-.891c.114-.307.437-.445.785-.412.382.037.617.257.757.608a7.205 7.205 0 01.459 3.874.868.868 0 00.31.888c.657.597 1.288 1.222 1.923 1.843.527.515.53.952.013 1.477l-6.304 6.42c-.519.53-.954.54-1.48.026-.635-.62-1.256-1.256-1.9-1.866-.106-.103-.337-.186-.46-.142-1.953.698-3.878.526-5.762-.193-2.48-.95-4.806-2.221-7.078-3.58a135.354 135.354 0 01-5.687-3.611c-1.554-1.038-1.512-2.783.033-3.89 1.076-.768 2.242-.889 3.479-.49.144.046.286.095.428.143l.033-.057zM30.383 19l-5.32 5.418 1.486 1.453 5.325-5.422L30.384 19z" fill="#565555"/><path d="M28.677 9.497a.834.834 0 01-.047 1.194.853.853 0 01-1.433-.639.867.867 0 01.252-.597.851.851 0 011.227.042z" fill="#565555"/></svg>
